img/icons/electronic/tablet.svg

<svg xmlns="http://www.w3.org/2000/svg" viewBox="0 0 48 38"><defs><style>.cls-1{fill:#231f20}</style></defs><g id="Layer_2" data-name="Layer 2"><g id="Icons"><g id="Device_Electronic" data-name="Device / Electronic"><g id="Tablet"><path class="cls-1" d="M43 0H5a5 5 0 00-5 5v28a5 5 0 005 5h38a5 5 0 005-5V5a5 5 0 00-5-5zM2 33V5a3 3 0 013-3h33v34H5a3 3 0 01-3-3zm44 0a3 3 0 01-3 3h-3V2h3a3 3 0 013 3z"/><circle class="cls-1" cx="43" cy="19" r="2"/></g></g></g></g></svg>

<svg xmlns="http://www.w3.org/2000/svg" viewBox="0 0 48 38"><defs><style>.cls-1{fill:#231f20;}</style></defs><title>Tablet</title><g id="Layer_2" data-name="Layer 2"><g id="Icons"><g id="Device_Electronic" data-name="Device / Electronic"><g id="Tablet"><path class="cls-1" d="M43,0H5A5,5,0,0,0,0,5V33a5,5,0,0,0,5,5H43a5,5,0,0,0,5-5V5A5,5,0,0,0,43,0ZM2,33V5A3,3,0,0,1,5,2H38V36H5A3,3,0,0,1,2,33Zm44,0a3,3,0,0,1-3,3H40V2h3a3,3,0,0,1,3,3Z"/><circle class="cls-1" cx="43" cy="19" r="2"/></g></g></g></g></svg>
